!!!OTL: 352a. Preussisches Kriegslied 1813.
!!!ODT: 1840
!!!ARE: Europa, Mitteleuropa, Deutschland, Pommern
!!!SCT: E0352
!!!TXL: @@DE
!!!YEM: Copyright 1995, estate of Helmut Schaffrath.
**kern	**text
*ICvox	*
*M4/4	*
*met(c)	*
*k[b-e-]	*
*B-:	*
!LO:TX:a:t=Friſch und kräftig.	!
!LO:TX:a:t=Mel. aus der Gegend von Breslau. 1840.	!
!LO:TX:a:t=Varianden aus Pommern (Kretzschmer.)	!
{4f	Wir
=1	=1
4b-	Preu-
4f	-ßen
4f	ʒie-
4b-	-hen
=2	=2
4g	in
4e-	das
4e-}	Feld,
{4cc	hur-
=3	=3
4a	-rah,
4f	hur-
4g	-rah,
4a	hur-
=4	=4
2b-	-rah!
4r}	.
{4f	Für's
=5	=5
4b-	Va-
4f	-ter-
4f	-land
4b-	und
=6	=6
4g	nicht
4e-	für's
4e-}	Geld,
{4cc	hur-
=7	=7
4a	-rah,
4f	hur-
4g	-rah,
4a	hur-
=8	=8
2b-	-rah!
4r}	.
{8b-L	Un-
8ccJ	-ſer
=9	=9
4dd	Kö-
4dd	-nig
8ee-L	iſt
8ddJ	.
8ccL	ein
8b-J	.
=10	=10
4cc	bra-
4f	-ver
4f}	Held,
{8fL	er
8aJ	.
=11	=11
4cc	ʒieht
4cc	mit
8ffL	ſei-
8ee-J	.
8ddL	-nem
8ccJ	.
=12	=12
4b-	Heer
4cc	ins
8dd}	Feld,
{8f	und
8g	er
8a	ſoll
=13	=13
2b-	le-
8dd	-ben,
8cc	und
8b-	er
8a	ſoll
=14	=14
2g	le-
8ee-}	-ben,
{8ee-	und
8ee-	er
8ee-	ſoll
=15	=15
4dd	le-
4dd	-ben
4cc	mit
4cc	Hur-
=16	=16
2b-	-rah!
4r	.
8r}	.
{8ff	Hur-
=17	=17
4dd	-rah,
8r	.
8ff	hur-
4dd	-rah,
8r	.
8ff	hur-
=18	=18
8ggL	-rah,
8ffJ	.
8ee-L	hur-
8ddJ	.
4ee-	-rah!
8r}	.
{8ee-	Hur-
=19	=19
4cc	-rah,
8r	.
8ee-	hur-
4cc	-rah,
8r	.
8ee-	hur-
=20	=20
8ffL	-rah,
8ee-J	.
8ddL	hur-
8ccJ	.
8dd}	-rah,
{8f	und
8f	er
8f	ſoll
=21	=21
2b-	le-
8dd	-ben,
8cc	und
8b-	er
8a	ſoll
=22	=22
2g	le-
8ee-}	-ben,
{8dd	und
8cc	er
8b-	ſoll
=23	=23
4a	le-
4ff	-ben
4ff	mit
4ff	Hur-
=24	=24
2b-	-rah!
4r}	.
==	==
!!!AGN: historisches Lied, preussisches Kriegs - Lied (1813)
!!!ONB: ESAC (Essen Associative Code) Database: ERK1
!!!AMT: simple quadruple
!!!AIN: vox
!!!EED: Helmut Schaffrath
!!!EEV: 1.0
!!!GTL: Historische Lieder
!!!URL-scan: https://rosdok.uni-rostock.de/mcrviewer/recordIdentifier/rosdok_ppn745177662/iview2/phys_0166.iview2?x=-511.385789653207&y=1269.989222440985&scale=0.48104763951911705&rotation=0&layout=singlePageLayout
!!!ENC: Anna Maria Matuszewska
!!!EEV: 2024/09/12
*-	*-
